( pcb2gcode 2.0.0 )
( Software-independent Gcode )

G94 ( Inches per minute feed rate. )
G20 ( Units == INCHES. )

G90 ( Absolute coordinates. )
G00 S1000 ( RPM spindle speed. )
G64 P0.00040 ( set maximum deviation from commanded toolpath )
G01 F9.84252 ( Feedrate. )


G00 Z0.39370 (Retract to tool change height)
T0
M5      (Spindle stop.)
G04 P1.00000 (Wait for spindle to stop)
(MSG, Change tool bit to mill diameter 0.00787in)
M6      (Tool change.)
M0      (Temporary machine stop.)
M3 ( Spindle on clockwise. )
G04 P1.00000 (Wait for spindle to get up to speed)
G04 P0 ( dwell for no time -- G64 should not smooth over this point )
G00 Z0.07874 ( retract )

G00 X0.04630 Y-0.98425 ( rapid move to begin. )
G01 F4.92126
G01 Z-0.03937
G04 P0 ( dwell for no time -- G64 should not smooth over this point )
G01 F9.84252
G01 X0.04630 Y-0.98425
G01 X0.04701 Y-0.99100
G01 X0.04910 Y-0.99745
G01 X0.05249 Y-1.00332
G01 X0.05703 Y-1.00836
G01 X0.06252 Y-1.01235
G01 X0.06871 Y-1.01511
G01 X0.07535 Y-1.01652
G01 X0.08213 Y-1.01652
G01 X0.08876 Y-1.01511
G01 X0.09496 Y-1.01235
G01 X0.10045 Y-1.00836
G01 X0.10499 Y-1.00332
G01 X0.10838 Y-0.99745
G01 X0.11047 Y-0.99100
G01 X0.11118 Y-0.98425
G01 X0.11047 Y-0.97751
G01 X0.10838 Y-0.97106
G01 X0.10499 Y-0.96518
G01 X0.10045 Y-0.96014
G01 X0.09496 Y-0.95615
G01 X0.08876 Y-0.95340
G01 X0.08213 Y-0.95199
G01 X0.07535 Y-0.95199
G01 X0.06871 Y-0.95340
G01 X0.06252 Y-0.95615
G01 X0.05703 Y-0.96014
G01 X0.05249 Y-0.96518
G01 X0.04910 Y-0.97106
G01 X0.04701 Y-0.97751
G01 X0.04630 Y-0.98425
G04 P0 ( dwell for no time -- G64 should not smooth over this point )
G00 Z0.07874 ( retract )

G00 X0.03250 Y-0.98457 ( rapid move to begin. )
G01 F4.92126
G01 Z-0.03937
G04 P0 ( dwell for no time -- G64 should not smooth over this point )
G01 F9.84252
G01 X0.03250 Y-0.98457
G01 X0.03357 Y-0.97432
G01 X0.03648 Y-0.96552
G01 X0.04130 Y-0.95714
G01 X0.04750 Y-0.95016
G01 X0.05556 Y-0.94426
G01 X0.06407 Y-0.94040
G01 X0.07465 Y-0.93821
G01 X0.08429 Y-0.93836
G01 X0.09305 Y-0.94026
G01 X0.10248 Y-0.94459
G01 X0.10998 Y-0.95016
G01 X0.11618 Y-0.95714
G01 X0.12085 Y-0.96514
G01 X0.12399 Y-0.97462
G01 X0.12498 Y-0.98384
G01 X0.12410 Y-0.99315
G01 X0.12101 Y-1.00305
G01 X0.11656 Y-1.01083
G01 X0.11022 Y-1.01810
G01 X0.10120 Y-1.02465
G01 X0.09231 Y-1.02844
G01 X0.08285 Y-1.03030
G01 X0.07389 Y-1.03026
G01 X0.06413 Y-1.02813
G01 X0.05569 Y-1.02432
G01 X0.04777 Y-1.01862
G01 X0.04139 Y-1.01149
G01 X0.03666 Y-1.00343
G01 X0.03368 Y-0.99457
G01 X0.03250 Y-0.98457
G04 P0 ( dwell for no time -- G64 should not smooth over this point )
G00 Z0.07874 ( retract )

G00 X-0.00689 Y-1.06299 ( rapid move to begin. )
G01 F4.92126
G01 Z-0.03937
G04 P0 ( dwell for no time -- G64 should not smooth over this point )
G01 F9.84252
G01 X-0.00689 Y-1.06299
G01 X-0.00633 Y-1.06570
G01 X-0.00505 Y-1.06768
G01 X-0.00283 Y-1.06927
G01 X-0.00015 Y-1.06987
G01 X0.74803 Y-1.06988
G01 X0.75118 Y-1.06908
G01 X0.75376 Y-1.06682
G01 X0.75492 Y-1.06299
G01 X0.75492 Y0.00000
G01 X0.75376 Y0.00383
G01 X0.75186 Y0.00573
G01 X0.74803 Y0.00689
G01 X0.00000 Y0.00689
G01 X-0.00350 Y0.00593
G01 X-0.00573 Y0.00383
G01 X-0.00689 Y0.00000
G01 X-0.00689 Y-1.06299
G04 P0 ( dwell for no time -- G64 should not smooth over this point )
G00 Z0.07874 ( retract )

G00 X0.00689 Y-1.05610 ( rapid move to begin. )
G01 F4.92126
G01 Z-0.03937
G04 P0 ( dwell for no time -- G64 should not smooth over this point )
G01 F9.84252
G01 X0.00689 Y-1.05610
G01 X0.74114 Y-1.05610
G01 X0.74114 Y-0.00689
G01 X0.00689 Y-0.00689
G01 X0.00689 Y-1.05610
G04 P0 ( dwell for no time -- G64 should not smooth over this point )
G00 Z0.07874 ( retract )

G00 X0.62305 Y-0.98456 ( rapid move to begin. )
G01 F4.92126
G01 Z-0.03937
G04 P0 ( dwell for no time -- G64 should not smooth over this point )
G01 F9.84252
G01 X0.62305 Y-0.98456
G01 X0.62413 Y-0.97432
G01 X0.62703 Y-0.96552
G01 X0.63185 Y-0.95714
G01 X0.63805 Y-0.95016
G01 X0.64683 Y-0.94385
G01 X0.65532 Y-0.94017
G01 X0.66518 Y-0.93821
G01 X0.67414 Y-0.93825
G01 X0.68390 Y-0.94037
G01 X0.69303 Y-0.94459
G01 X0.70053 Y-0.95016
G01 X0.70673 Y-0.95714
G01 X0.71140 Y-0.96514
G01 X0.71454 Y-0.97462
G01 X0.71555 Y-0.98425
G01 X0.71460 Y-0.99346
G01 X0.71181 Y-1.00239
G01 X0.70672 Y-1.01143
G01 X0.70076 Y-1.01811
G01 X0.69175 Y-1.02465
G01 X0.68286 Y-1.02844
G01 X0.67340 Y-1.03030
G01 X0.66444 Y-1.03026
G01 X0.65468 Y-1.02813
G01 X0.64555 Y-1.02392
G01 X0.63805 Y-1.01834
G01 X0.63185 Y-1.01136
G01 X0.62704 Y-1.00308
G01 X0.62415 Y-0.99427
G01 X0.62305 Y-0.98456
G04 P0 ( dwell for no time -- G64 should not smooth over this point )
G00 Z0.07874 ( retract )

G00 X0.63685 Y-0.98425 ( rapid move to begin. )
G01 F4.92126
G01 Z-0.03937
G04 P0 ( dwell for no time -- G64 should not smooth over this point )
G01 F9.84252
G01 X0.63685 Y-0.98425
G01 X0.63756 Y-0.99100
G01 X0.63965 Y-0.99745
G01 X0.64304 Y-1.00332
G01 X0.64758 Y-1.00836
G01 X0.65307 Y-1.01235
G01 X0.65927 Y-1.01511
G01 X0.66590 Y-1.01652
G01 X0.67268 Y-1.01652
G01 X0.67932 Y-1.01511
G01 X0.68551 Y-1.01235
G01 X0.69100 Y-1.00836
G01 X0.69554 Y-1.00332
G01 X0.69893 Y-0.99745
G01 X0.70102 Y-0.99100
G01 X0.70173 Y-0.98425
G01 X0.70102 Y-0.97751
G01 X0.69893 Y-0.97106
G01 X0.69554 Y-0.96518
G01 X0.69100 Y-0.96014
G01 X0.68551 Y-0.95615
G01 X0.67932 Y-0.95340
G01 X0.67268 Y-0.95199
G01 X0.66590 Y-0.95199
G01 X0.65926 Y-0.95340
G01 X0.65307 Y-0.95615
G01 X0.64758 Y-0.96014
G01 X0.64304 Y-0.96518
G01 X0.63965 Y-0.97106
G01 X0.63756 Y-0.97751
G01 X0.63685 Y-0.98425

G04 P0 ( dwell for no time -- G64 should not smooth over this point )
G00 Z0.394 ( retract )

M5 ( Spindle off. )
G04 P1.000000
M9 ( Coolant off. )
M2 ( Program end. )

