( pcb2gcode 2.0.0 )
( Software-independent Gcode )

G94 ( Inches per minute feed rate. )
G20 ( Units == INCHES. )

G90 ( Absolute coordinates. )
G00 S2000 ( RPM spindle speed. )
G64 P0.00040 ( set maximum deviation from commanded toolpath )
G01 F5.90551 ( Feedrate. )


G00 Z0.39370 (Retract to tool change height)
T0
M5      (Spindle stop.)
G04 P1.00000 (Wait for spindle to stop)
(MSG, Change tool bit to mill diameter 0.00000in)
M6      (Tool change.)
M0      (Temporary machine stop.)
M3 ( Spindle on clockwise. )
G04 P1.00000 (Wait for spindle to get up to speed)
G04 P0 ( dwell for no time -- G64 should not smooth over this point )
G00 Z0.07874 ( retract )

G00 X-0.10524 Y-0.27239 ( rapid move to begin. )
G01 F2.95276
G01 Z-0.00669
G04 P0 ( dwell for no time -- G64 should not smooth over this point )
G01 F5.90551
G01 X-0.10524 Y-0.27239
G01 X-0.10597 Y-0.27935
G01 X-0.10813 Y-0.28600
G01 X-0.11163 Y-0.29206
G01 X-0.11631 Y-0.29726
G01 X-0.12197 Y-0.30137
G01 X-0.12836 Y-0.30422
G01 X-0.13520 Y-0.30567
G01 X-0.14220 Y-0.30567
G01 X-0.14904 Y-0.30422
G01 X-0.15543 Y-0.30137
G01 X-0.16109 Y-0.29726
G01 X-0.16578 Y-0.29206
G01 X-0.16986 Y-0.28420
G01 X-0.42618 Y-0.28420
G01 X-0.42618 Y-0.30433
G01 X-0.45177 Y-0.30433
G01 X-0.45177 Y-0.26260
G01 X-0.43443 Y-0.26260
G01 X-0.43036 Y-0.26084
G01 X-0.42790 Y-0.26058
G01 X-0.16986 Y-0.26058
G01 X-0.16578 Y-0.25272
G01 X-0.16109 Y-0.24752
G01 X-0.15543 Y-0.24341
G01 X-0.14904 Y-0.24056
G01 X-0.14220 Y-0.23911
G01 X-0.13520 Y-0.23911
G01 X-0.12836 Y-0.24056
G01 X-0.12197 Y-0.24341
G01 X-0.11631 Y-0.24752
G01 X-0.11163 Y-0.25272
G01 X-0.10813 Y-0.25878
G01 X-0.10597 Y-0.26543
G01 X-0.10524 Y-0.27239
G04 P0 ( dwell for no time -- G64 should not smooth over this point )
G00 Z0.07874 ( retract )

G00 X-0.07768 Y-0.30996 ( rapid move to begin. )
G01 F2.95276
G01 Z-0.00669
G04 P0 ( dwell for no time -- G64 should not smooth over this point )
G01 F5.90551
G01 X-0.07768 Y-0.30996
G01 X-0.07791 Y-0.17009
G01 X-0.07967 Y-0.16583
G01 X-0.08293 Y-0.16257
G01 X-0.08497 Y-0.16148
G01 X-0.08949 Y-0.16058
G01 X-0.10524 Y-0.16058
G01 X-0.10524 Y-0.13893
G01 X-0.17217 Y-0.13893
G01 X-0.17217 Y-0.16058
G01 X-0.36779 Y-0.16058
G01 X-0.38583 Y-0.14255
G01 X-0.38583 Y-0.08268
G01 X-0.38672 Y-0.07816
G01 X-0.38782 Y-0.07612
G01 X-0.39108 Y-0.07286
G01 X-0.39312 Y-0.07176
G01 X-0.39764 Y-0.07087
G01 X-0.42323 Y-0.07087
G01 X-0.42568 Y-0.07112
G01 X-0.43017 Y-0.07312
G01 X-0.43200 Y-0.07477
G01 X-0.43502 Y-0.07944
G01 X-0.43498 Y-0.08621
G01 X-0.43200 Y-0.09058
G01 X-0.42803 Y-0.09347
G01 X-0.42568 Y-0.09423
G01 X-0.40945 Y-0.09449
G01 X-0.40945 Y-0.14255
G01 X-0.44288 Y-0.17598
G01 X-0.45177 Y-0.17598
G01 X-0.45177 Y-0.21772
G01 X-0.42618 Y-0.21772
G01 X-0.42618 Y-0.19519
G01 X-0.40895 Y-0.17796
G01 X-0.40716 Y-0.17521
G01 X-0.40672 Y-0.17322
G01 X-0.39764 Y-0.16414
G01 X-0.37925 Y-0.18221
G01 X-0.37499 Y-0.18397
G01 X-0.37269 Y-0.18420
G01 X-0.17217 Y-0.18420
G01 X-0.17217 Y-0.20586
G01 X-0.10524 Y-0.20586
G01 X-0.10524 Y-0.18420
G01 X-0.10130 Y-0.18420
G01 X-0.10130 Y-0.30507
G01 X-0.10602 Y-0.30979
G01 X-0.28454 Y-0.31002
G01 X-0.28675 Y-0.31069
G01 X-0.29058 Y-0.31325
G01 X-0.36316 Y-0.38583
G01 X-0.42323 Y-0.38583
G01 X-0.42568 Y-0.38608
G01 X-0.43017 Y-0.38808
G01 X-0.43481 Y-0.39355
G01 X-0.43502 Y-0.40088
G01 X-0.43200 Y-0.40554
G01 X-0.42803 Y-0.40843
G01 X-0.42323 Y-0.40945
G01 X-0.37008 Y-0.40945
G01 X-0.37008 Y-0.45475
G01 X-0.41532 Y-0.50000
G01 X-0.42618 Y-0.50000
G01 X-0.42618 Y-0.49094
G01 X-0.45177 Y-0.49094
G01 X-0.45177 Y-0.53268
G01 X-0.42618 Y-0.53268
G01 X-0.42618 Y-0.52362
G01 X-0.41043 Y-0.52362
G01 X-0.40813 Y-0.52340
G01 X-0.40387 Y-0.52163
G01 X-0.34992 Y-0.46800
G01 X-0.34736 Y-0.46416
G01 X-0.34646 Y-0.45965
G01 X-0.34646 Y-0.40253
G01 X-0.27734 Y-0.33341
G01 X-0.09883 Y-0.33319
G01 X-0.09457 Y-0.33142
G01 X-0.09278 Y-0.32995
G01 X-0.08114 Y-0.31831
G01 X-0.07858 Y-0.31448
G01 X-0.07768 Y-0.30996
G04 P0 ( dwell for no time -- G64 should not smooth over this point )
G00 Z0.07874 ( retract )

G00 X-0.10524 Y-0.47239 ( rapid move to begin. )
G01 F2.95276
G01 Z-0.00669
G04 P0 ( dwell for no time -- G64 should not smooth over this point )
G01 F5.90551
G01 X-0.10524 Y-0.47239
G01 X-0.10597 Y-0.47935
G01 X-0.10813 Y-0.48600
G01 X-0.11163 Y-0.49206
G01 X-0.11631 Y-0.49726
G01 X-0.12197 Y-0.50137
G01 X-0.12836 Y-0.50422
G01 X-0.13520 Y-0.50567
G01 X-0.14220 Y-0.50567
G01 X-0.14904 Y-0.50422
G01 X-0.15543 Y-0.50137
G01 X-0.16109 Y-0.49726
G01 X-0.16578 Y-0.49206
G01 X-0.16986 Y-0.48420
G01 X-0.23128 Y-0.48420
G01 X-0.35564 Y-0.60825
G01 X-0.35768 Y-0.60934
G01 X-0.36220 Y-0.61024
G01 X-0.42618 Y-0.61024
G01 X-0.42618 Y-0.61929
G01 X-0.45177 Y-0.61929
G01 X-0.45177 Y-0.57756
G01 X-0.42618 Y-0.57756
G01 X-0.42618 Y-0.58661
G01 X-0.36710 Y-0.58661
G01 X-0.24452 Y-0.46404
G01 X-0.24069 Y-0.46148
G01 X-0.23617 Y-0.46058
G01 X-0.16986 Y-0.46058
G01 X-0.16578 Y-0.45272
G01 X-0.16109 Y-0.44752
G01 X-0.15543 Y-0.44341
G01 X-0.14904 Y-0.44056
G01 X-0.14220 Y-0.43911
G01 X-0.13520 Y-0.43911
G01 X-0.12836 Y-0.44056
G01 X-0.12197 Y-0.44341
G01 X-0.11631 Y-0.44752
G01 X-0.11163 Y-0.45272
G01 X-0.10813 Y-0.45878
G01 X-0.10597 Y-0.46543
G01 X-0.10524 Y-0.47239
G04 P0 ( dwell for no time -- G64 should not smooth over this point )
G00 Z0.07874 ( retract )

G00 X-0.10524 Y-0.67830 ( rapid move to begin. )
G01 F2.95276
G01 Z-0.00669
G04 P0 ( dwell for no time -- G64 should not smooth over this point )
G01 F5.90551
G01 X-0.10524 Y-0.67830
G01 X-0.10524 Y-0.61137
G01 X-0.17217 Y-0.61137
G01 X-0.17217 Y-0.63302
G01 X-0.21176 Y-0.63302
G01 X-0.21628 Y-0.63392
G01 X-0.22011 Y-0.63648
G01 X-0.24505 Y-0.66142
G01 X-0.66834 Y-0.66142
G01 X-0.80302 Y-0.52710
G01 X-0.80522 Y-0.52598
G01 X-0.81007 Y-0.52521
G01 X-0.81481 Y-0.52648
G01 X-0.81819 Y-0.52913
G01 X-0.83764 Y-0.52913
G01 X-0.83951 Y-0.52340
G01 X-0.84301 Y-0.51734
G01 X-0.84769 Y-0.51214
G01 X-0.85335 Y-0.50803
G01 X-0.85974 Y-0.50518
G01 X-0.86658 Y-0.50373
G01 X-0.87358 Y-0.50373
G01 X-0.88042 Y-0.50518
G01 X-0.88681 Y-0.50803
G01 X-0.89247 Y-0.51214
G01 X-0.89715 Y-0.51734
G01 X-0.90065 Y-0.52340
G01 X-0.90281 Y-0.53005
G01 X-0.90354 Y-0.53701
G01 X-0.90281 Y-0.54397
G01 X-0.90187 Y-0.54685
G01 X-1.31932 Y-0.54685
G01 X-1.32258 Y-0.54103
G01 X-1.32678 Y-0.53637
G01 X-1.33185 Y-0.53268
G01 X-1.33758 Y-0.53013
G01 X-1.34371 Y-0.52882
G01 X-1.34999 Y-0.52882
G01 X-1.35612 Y-0.53013
G01 X-1.36185 Y-0.53268
G01 X-1.36692 Y-0.53637
G01 X-1.37112 Y-0.54103
G01 X-1.37426 Y-0.54646
G01 X-1.37619 Y-0.55242
G01 X-1.37685 Y-0.55866
G01 X-1.37619 Y-0.56490
G01 X-1.37426 Y-0.57086
G01 X-1.37112 Y-0.57629
G01 X-1.36692 Y-0.58095
G01 X-1.36185 Y-0.58464
G01 X-1.35612 Y-0.58719
G01 X-1.34999 Y-0.58850
G01 X-1.34371 Y-0.58850
G01 X-1.33758 Y-0.58719
G01 X-1.33185 Y-0.58464
G01 X-1.32678 Y-0.58095
G01 X-1.32258 Y-0.57629
G01 X-1.31932 Y-0.57047
G01 X-0.89173 Y-0.57047
G01 X-0.88693 Y-0.56945
G01 X-0.88380 Y-0.56733
G01 X-0.88042 Y-0.56883
G01 X-0.87358 Y-0.57029
G01 X-0.86658 Y-0.57029
G01 X-0.85974 Y-0.56883
G01 X-0.85335 Y-0.56599
G01 X-0.84769 Y-0.56188
G01 X-0.84301 Y-0.55668
G01 X-0.83951 Y-0.55062
G01 X-0.83764 Y-0.54488
G01 X-0.81819 Y-0.54488
G01 X-0.68158 Y-0.68158
G01 X-0.67775 Y-0.68414
G01 X-0.67553 Y-0.68481
G01 X-0.24016 Y-0.68504
G01 X-0.23564 Y-0.68414
G01 X-0.23181 Y-0.68158
G01 X-0.20687 Y-0.65664
G01 X-0.17217 Y-0.65664
G01 X-0.17217 Y-0.67830
G01 X-0.10524 Y-0.67830
G04 P0 ( dwell for no time -- G64 should not smooth over this point )
G00 Z0.07874 ( retract )

G00 X-0.10524 Y-0.74483 ( rapid move to begin. )
G01 F2.95276
G01 Z-0.00669
G04 P0 ( dwell for no time -- G64 should not smooth over this point )
G01 F5.90551
G01 X-0.10524 Y-0.74483
G01 X-0.10597 Y-0.75179
G01 X-0.10813 Y-0.75844
G01 X-0.11163 Y-0.76450
G01 X-0.11631 Y-0.76970
G01 X-0.12197 Y-0.77381
G01 X-0.12836 Y-0.77666
G01 X-0.13520 Y-0.77811
G01 X-0.14220 Y-0.77811
G01 X-0.14904 Y-0.77666
G01 X-0.15543 Y-0.77381
G01 X-0.16109 Y-0.76970
G01 X-0.16578 Y-0.76450
G01 X-0.16986 Y-0.75664
G01 X-0.68036 Y-0.75664
G01 X-0.68488 Y-0.75574
G01 X-0.68872 Y-0.75318
G01 X-0.79693 Y-0.64488
G01 X-0.83764 Y-0.64488
G01 X-0.83951 Y-0.65062
G01 X-0.84301 Y-0.65668
G01 X-0.84769 Y-0.66188
G01 X-0.85335 Y-0.66599
G01 X-0.85974 Y-0.66883
G01 X-0.86658 Y-0.67029
G01 X-0.87358 Y-0.67029
G01 X-0.88042 Y-0.66883
G01 X-0.88681 Y-0.66599
G01 X-0.89247 Y-0.66188
G01 X-0.89715 Y-0.65668
G01 X-0.90065 Y-0.65062
G01 X-0.90251 Y-0.64488
G01 X-0.90861 Y-0.64488
G01 X-0.91260 Y-0.64780
G01 X-0.91740 Y-0.64882
G01 X-1.33851 Y-0.64859
G01 X-1.34277 Y-0.64683
G01 X-1.34456 Y-0.64536
G01 X-1.42520 Y-0.56472
G01 X-1.42776 Y-0.56089
G01 X-1.42843 Y-0.55867
G01 X-1.42866 Y-0.54355
G01 X-1.43581 Y-0.53641
G01 X-1.44371 Y-0.53850
G01 X-1.44999 Y-0.53850
G01 X-1.45612 Y-0.53719
G01 X-1.46185 Y-0.53464
G01 X-1.46692 Y-0.53095
G01 X-1.47112 Y-0.52629
G01 X-1.47426 Y-0.52086
G01 X-1.47619 Y-0.51490
G01 X-1.47685 Y-0.50866
G01 X-1.47619 Y-0.50242
G01 X-1.47426 Y-0.49646
G01 X-1.47112 Y-0.49103
G01 X-1.46692 Y-0.48637
G01 X-1.46185 Y-0.48268
G01 X-1.45612 Y-0.48013
G01 X-1.44999 Y-0.47883
G01 X-1.44371 Y-0.47883
G01 X-1.43758 Y-0.48013
G01 X-1.43185 Y-0.48268
G01 X-1.42678 Y-0.48637
G01 X-1.42258 Y-0.49103
G01 X-1.41944 Y-0.49646
G01 X-1.41751 Y-0.50242
G01 X-1.41685 Y-0.50866
G01 X-1.41751 Y-0.51490
G01 X-1.41908 Y-0.51973
G01 X-1.40850 Y-0.53031
G01 X-1.40594 Y-0.53414
G01 X-1.40504 Y-0.53866
G01 X-1.40504 Y-0.55148
G01 X-1.33132 Y-0.62520
G01 X-0.91740 Y-0.62520
G01 X-0.91260 Y-0.62622
G01 X-0.90861 Y-0.62913
G01 X-0.90251 Y-0.62913
G01 X-0.90065 Y-0.62340
G01 X-0.89715 Y-0.61734
G01 X-0.89247 Y-0.61214
G01 X-0.88681 Y-0.60803
G01 X-0.88042 Y-0.60518
G01 X-0.87358 Y-0.60373
G01 X-0.86658 Y-0.60373
G01 X-0.85974 Y-0.60518
G01 X-0.85335 Y-0.60803
G01 X-0.84769 Y-0.61214
G01 X-0.84301 Y-0.61734
G01 X-0.83951 Y-0.62340
G01 X-0.83764 Y-0.62913
G01 X-0.79693 Y-0.62913
G01 X-0.79355 Y-0.62648
G01 X-0.78881 Y-0.62521
G01 X-0.78634 Y-0.62534
G01 X-0.78176 Y-0.62710
G01 X-0.67547 Y-0.73302
G01 X-0.16986 Y-0.73302
G01 X-0.16578 Y-0.72516
G01 X-0.16109 Y-0.71996
G01 X-0.15543 Y-0.71585
G01 X-0.14904 Y-0.71300
G01 X-0.14220 Y-0.71155
G01 X-0.13520 Y-0.71155
G01 X-0.12836 Y-0.71300
G01 X-0.12197 Y-0.71585
G01 X-0.11631 Y-0.71996
G01 X-0.11163 Y-0.72516
G01 X-0.10813 Y-0.73122
G01 X-0.10597 Y-0.73787
G01 X-0.10524 Y-0.74483
G04 P0 ( dwell for no time -- G64 should not smooth over this point )
G00 Z0.07874 ( retract )

G00 X-0.04331 Y-0.80709 ( rapid move to begin. )
G01 F2.95276
G01 Z-0.00669
G04 P0 ( dwell for no time -- G64 should not smooth over this point )
G01 F5.90551
G01 X-0.04331 Y-0.80709
G01 X-0.04353 Y-0.40635
G01 X-0.04530 Y-0.40209
G01 X-0.04677 Y-0.40030
G01 X-0.08482 Y-0.36257
G01 X-0.08686 Y-0.36148
G01 X-0.09138 Y-0.36058
G01 X-0.10755 Y-0.36058
G01 X-0.11163 Y-0.35272
G01 X-0.11631 Y-0.34752
G01 X-0.12197 Y-0.34341
G01 X-0.12836 Y-0.34056
G01 X-0.13520 Y-0.33911
G01 X-0.14220 Y-0.33911
G01 X-0.14904 Y-0.34056
G01 X-0.15543 Y-0.34341
G01 X-0.16109 Y-0.34752
G01 X-0.16578 Y-0.35272
G01 X-0.16927 Y-0.35878
G01 X-0.17144 Y-0.36543
G01 X-0.17217 Y-0.37239
G01 X-0.17144 Y-0.37935
G01 X-0.16927 Y-0.38600
G01 X-0.16578 Y-0.39206
G01 X-0.16109 Y-0.39726
G01 X-0.15543 Y-0.40137
G01 X-0.14904 Y-0.40422
G01 X-0.14220 Y-0.40567
G01 X-0.13520 Y-0.40567
G01 X-0.12836 Y-0.40422
G01 X-0.12197 Y-0.40137
G01 X-0.11631 Y-0.39726
G01 X-0.11163 Y-0.39206
G01 X-0.10755 Y-0.38420
G01 X-0.09627 Y-0.38420
G01 X-0.06693 Y-0.41354
G01 X-0.06693 Y-0.53937
G01 X-0.20079 Y-0.53937
G01 X-0.20531 Y-0.54027
G01 X-0.20914 Y-0.54283
G01 X-0.28954 Y-0.62323
G01 X-0.46243 Y-0.62323
G01 X-0.46457 Y-0.62109
G01 X-0.46457 Y-0.53268
G01 X-0.46358 Y-0.53268
G01 X-0.46358 Y-0.49094
G01 X-0.46457 Y-0.49094
G01 X-0.46479 Y-0.47289
G01 X-0.46547 Y-0.47068
G01 X-0.46803 Y-0.46685
G01 X-0.50394 Y-0.43093
G01 X-0.50394 Y-0.40945
G01 X-0.44833 Y-0.40919
G01 X-0.44384 Y-0.40719
G01 X-0.43947 Y-0.40223
G01 X-0.43899 Y-0.39439
G01 X-0.44201 Y-0.38973
G01 X-0.44384 Y-0.38808
G01 X-0.44833 Y-0.38608
G01 X-0.48723 Y-0.38583
G01 X-0.46803 Y-0.36662
G01 X-0.46535 Y-0.36250
G01 X-0.46471 Y-0.36012
G01 X-0.46497 Y-0.35521
G01 X-0.46622 Y-0.35235
G01 X-0.46482 Y-0.34891
G01 X-0.46457 Y-0.34646
G01 X-0.46457 Y-0.21772
G01 X-0.46358 Y-0.21772
G01 X-0.46358 Y-0.17598
G01 X-0.46457 Y-0.17598
G01 X-0.46479 Y-0.15793
G01 X-0.46656 Y-0.15367
G01 X-0.50394 Y-0.11597
G01 X-0.50394 Y-0.09449
G01 X-0.45079 Y-0.09449
G01 X-0.44598 Y-0.09347
G01 X-0.44201 Y-0.09058
G01 X-0.43899 Y-0.08592
G01 X-0.43947 Y-0.07808
G01 X-0.44201 Y-0.07477
G01 X-0.44598 Y-0.07189
G01 X-0.45079 Y-0.07087
G01 X-0.51805 Y-0.07109
G01 X-0.52231 Y-0.07286
G01 X-0.52410 Y-0.07433
G01 X-0.52666 Y-0.07816
G01 X-0.52756 Y-0.08268
G01 X-0.52756 Y-0.12087
G01 X-0.52666 Y-0.12539
G01 X-0.52410 Y-0.12922
G01 X-0.48819 Y-0.16513
G01 X-0.48819 Y-0.17598
G01 X-0.48917 Y-0.17598
G01 X-0.48917 Y-0.21772
G01 X-0.48819 Y-0.21772
G01 X-0.48819 Y-0.34646
G01 X-0.48677 Y-0.35195
G01 X-0.52410 Y-0.38929
G01 X-0.52666 Y-0.39312
G01 X-0.52756 Y-0.39764
G01 X-0.52756 Y-0.43583
G01 X-0.52666 Y-0.44035
G01 X-0.52410 Y-0.44418
G01 X-0.48819 Y-0.48009
G01 X-0.48819 Y-0.49094
G01 X-0.48917 Y-0.49094
G01 X-0.48917 Y-0.53268
G01 X-0.48819 Y-0.53268
G01 X-0.48819 Y-0.62598
G01 X-0.48729 Y-0.63050
G01 X-0.48473 Y-0.63433
G01 X-0.47388 Y-0.64486
G01 X-0.47184 Y-0.64595
G01 X-0.46732 Y-0.64685
G01 X-0.28234 Y-0.64662
G01 X-0.28013 Y-0.64595
G01 X-0.27629 Y-0.64339
G01 X-0.19590 Y-0.56299
G01 X-0.06693 Y-0.56299
G01 X-0.06693 Y-0.79134
G01 X-0.74983 Y-0.79134
G01 X-0.81443 Y-0.72710
G01 X-0.81902 Y-0.72534
G01 X-0.82148 Y-0.72521
G01 X-0.82623 Y-0.72648
G01 X-0.82960 Y-0.72913
G01 X-0.83661 Y-0.72913
G01 X-0.83661 Y-0.70354
G01 X-0.90354 Y-0.70354
G01 X-0.90354 Y-0.72520
G01 X-1.77896 Y-0.72520
G01 X-1.78844 Y-0.71572
G01 X-1.78670 Y-0.71036
G01 X-1.78602 Y-0.70394
G01 X-1.78670 Y-0.69751
G01 X-1.78869 Y-0.69137
G01 X-1.79193 Y-0.68577
G01 X-1.79625 Y-0.68097
G01 X-1.80148 Y-0.67717
G01 X-1.80512 Y-0.67555
G01 X-1.80512 Y-0.20749
G01 X-1.80614 Y-0.20268
G01 X-1.80906 Y-0.19869
G01 X-1.80906 Y-0.19353
G01 X-1.80148 Y-0.19054
G01 X-1.79625 Y-0.18675
G01 X-1.79193 Y-0.18194
G01 X-1.78869 Y-0.17635
G01 X-1.78670 Y-0.17020
G01 X-1.78602 Y-0.16378
G01 X-1.78670 Y-0.15735
G01 X-1.78869 Y-0.15121
G01 X-1.79193 Y-0.14561
G01 X-1.79625 Y-0.14081
G01 X-1.80148 Y-0.13701
G01 X-1.80738 Y-0.13439
G01 X-1.81370 Y-0.13304
G01 X-1.82016 Y-0.13304
G01 X-1.82648 Y-0.13439
G01 X-1.83238 Y-0.13701
G01 X-1.83761 Y-0.14081
G01 X-1.84193 Y-0.14561
G01 X-1.84516 Y-0.15121
G01 X-1.84716 Y-0.15735
G01 X-1.84783 Y-0.16378
G01 X-1.84716 Y-0.17020
G01 X-1.84516 Y-0.17635
G01 X-1.84193 Y-0.18194
G01 X-1.83761 Y-0.18675
G01 X-1.83238 Y-0.19054
G01 X-1.82480 Y-0.19353
G01 X-1.82480 Y-0.19869
G01 X-1.82772 Y-0.20268
G01 X-1.82874 Y-0.20749
G01 X-1.82874 Y-0.67555
G01 X-1.83238 Y-0.67717
G01 X-1.83761 Y-0.68097
G01 X-1.84193 Y-0.68577
G01 X-1.84516 Y-0.69137
G01 X-1.84716 Y-0.69751
G01 X-1.84783 Y-0.70394
G01 X-1.84716 Y-0.71036
G01 X-1.84516 Y-0.71651
G01 X-1.84193 Y-0.72210
G01 X-1.83761 Y-0.72690
G01 X-1.83238 Y-0.73070
G01 X-1.82648 Y-0.73333
G01 X-1.82016 Y-0.73467
G01 X-1.81370 Y-0.73467
G01 X-1.80521 Y-0.73236
G01 X-1.79221 Y-0.74536
G01 X-1.78838 Y-0.74792
G01 X-1.78386 Y-0.74882
G01 X-0.90354 Y-0.74882
G01 X-0.90354 Y-0.77047
G01 X-0.83661 Y-0.77047
G01 X-0.83661 Y-0.74488
G01 X-0.82960 Y-0.74488
G01 X-0.76308 Y-0.81150
G01 X-0.75924 Y-0.81406
G01 X-0.75472 Y-0.81496
G01 X-0.06383 Y-0.81496
G01 X-0.06102 Y-0.81732
G01 X-0.05877 Y-0.81832
G01 X-0.05388 Y-0.81883
G01 X-0.04921 Y-0.81732
G01 X-0.04721 Y-0.81586
G01 X-0.04433 Y-0.81189
G01 X-0.04331 Y-0.80709
G04 P0 ( dwell for no time -- G64 should not smooth over this point )
G00 Z0.07874 ( retract )

G00 X-0.50098 Y-0.61929 ( rapid move to begin. )
G01 F2.95276
G01 Z-0.00669
G04 P0 ( dwell for no time -- G64 should not smooth over this point )
G01 F5.90551
G01 X-0.50098 Y-0.61929
G01 X-0.50098 Y-0.57756
G01 X-0.52657 Y-0.57756
G01 X-0.52657 Y-0.58661
G01 X-0.70377 Y-0.58661
G01 X-0.83960 Y-0.45078
G01 X-0.83735 Y-0.44396
G01 X-0.83661 Y-0.43701
G01 X-0.83735 Y-0.43005
G01 X-0.83951 Y-0.42340
G01 X-0.84301 Y-0.41734
G01 X-0.84769 Y-0.41214
G01 X-0.85335 Y-0.40803
G01 X-0.85974 Y-0.40518
G01 X-0.86658 Y-0.40373
G01 X-0.87358 Y-0.40373
G01 X-0.88042 Y-0.40518
G01 X-0.88681 Y-0.40803
G01 X-0.89247 Y-0.41214
G01 X-0.89715 Y-0.41734
G01 X-0.90065 Y-0.42340
G01 X-0.90281 Y-0.43005
G01 X-0.90354 Y-0.43701
G01 X-0.90281 Y-0.44396
G01 X-0.90056 Y-0.45078
G01 X-0.94237 Y-0.49260
G01 X-1.36392 Y-0.49260
G01 X-1.40504 Y-0.45148
G01 X-1.40504 Y-0.43866
G01 X-1.40594 Y-0.43414
G01 X-1.40850 Y-0.43031
G01 X-1.41908 Y-0.41973
G01 X-1.41751 Y-0.41490
G01 X-1.41685 Y-0.40866
G01 X-1.41751 Y-0.40242
G01 X-1.41944 Y-0.39646
G01 X-1.42258 Y-0.39103
G01 X-1.42678 Y-0.38637
G01 X-1.43185 Y-0.38268
G01 X-1.43758 Y-0.38013
G01 X-1.44371 Y-0.37883
G01 X-1.44999 Y-0.37883
G01 X-1.45612 Y-0.38013
G01 X-1.46185 Y-0.38268
G01 X-1.46692 Y-0.38637
G01 X-1.47112 Y-0.39103
G01 X-1.47426 Y-0.39646
G01 X-1.47619 Y-0.40242
G01 X-1.47685 Y-0.40866
G01 X-1.47619 Y-0.41490
G01 X-1.47426 Y-0.42086
G01 X-1.47112 Y-0.42629
G01 X-1.46692 Y-0.43095
G01 X-1.46185 Y-0.43464
G01 X-1.45612 Y-0.43719
G01 X-1.44999 Y-0.43850
G01 X-1.44371 Y-0.43850
G01 X-1.43581 Y-0.43640
G01 X-1.42866 Y-0.44355
G01 X-1.42843 Y-0.45867
G01 X-1.42667 Y-0.46293
G01 X-1.37716 Y-0.51276
G01 X-1.37333 Y-0.51532
G01 X-1.37111 Y-0.51599
G01 X-0.93748 Y-0.51622
G01 X-0.93296 Y-0.51532
G01 X-0.92913 Y-0.51276
G01 X-0.88373 Y-0.46736
G01 X-0.88042 Y-0.46883
G01 X-0.87358 Y-0.47029
G01 X-0.86658 Y-0.47029
G01 X-0.85974 Y-0.46883
G01 X-0.85643 Y-0.46736
G01 X-0.71701 Y-0.60678
G01 X-0.71318 Y-0.60934
G01 X-0.70866 Y-0.61024
G01 X-0.52657 Y-0.61024
G01 X-0.52657 Y-0.61929
G01 X-0.50098 Y-0.61929
G04 P0 ( dwell for no time -- G64 should not smooth over this point )
G00 Z0.07874 ( retract )

G00 X-0.50098 Y-0.53268 ( rapid move to begin. )
G01 F2.95276
G01 Z-0.00669
G04 P0 ( dwell for no time -- G64 should not smooth over this point )
G01 F5.90551
G01 X-0.50098 Y-0.53268
G01 X-0.50098 Y-0.49094
G01 X-0.50987 Y-0.49094
G01 X-0.67395 Y-0.32719
G01 X-0.67599 Y-0.32610
G01 X-0.68051 Y-0.32520
G01 X-0.83892 Y-0.32520
G01 X-0.84301 Y-0.31734
G01 X-0.84769 Y-0.31214
G01 X-0.85335 Y-0.30803
G01 X-0.85974 Y-0.30518
G01 X-0.86658 Y-0.30373
G01 X-0.87358 Y-0.30373
G01 X-0.88042 Y-0.30518
G01 X-0.88681 Y-0.30803
G01 X-0.89247 Y-0.31214
G01 X-0.89715 Y-0.31734
G01 X-0.90065 Y-0.32340
G01 X-0.90281 Y-0.33005
G01 X-0.90354 Y-0.33701
G01 X-0.90281 Y-0.34397
G01 X-0.90056 Y-0.35078
G01 X-0.99702 Y-0.44685
G01 X-1.31932 Y-0.44685
G01 X-1.32258 Y-0.44103
G01 X-1.32678 Y-0.43637
G01 X-1.33185 Y-0.43268
G01 X-1.33758 Y-0.43013
G01 X-1.34371 Y-0.42883
G01 X-1.34999 Y-0.42883
G01 X-1.35612 Y-0.43013
G01 X-1.36185 Y-0.43268
G01 X-1.36692 Y-0.43637
G01 X-1.37112 Y-0.44103
G01 X-1.37426 Y-0.44646
G01 X-1.37619 Y-0.45242
G01 X-1.37685 Y-0.45866
G01 X-1.37619 Y-0.46490
G01 X-1.37426 Y-0.47086
G01 X-1.37112 Y-0.47629
G01 X-1.36692 Y-0.48096
G01 X-1.36185 Y-0.48464
G01 X-1.35612 Y-0.48719
G01 X-1.34999 Y-0.48850
G01 X-1.34371 Y-0.48850
G01 X-1.33758 Y-0.48719
G01 X-1.33185 Y-0.48464
G01 X-1.32678 Y-0.48096
G01 X-1.32258 Y-0.47629
G01 X-1.31932 Y-0.47047
G01 X-0.98982 Y-0.47025
G01 X-0.98761 Y-0.46957
G01 X-0.98377 Y-0.46701
G01 X-0.88373 Y-0.36736
G01 X-0.88042 Y-0.36883
G01 X-0.87358 Y-0.37029
G01 X-0.86658 Y-0.37029
G01 X-0.85974 Y-0.36883
G01 X-0.85335 Y-0.36599
G01 X-0.84769 Y-0.36188
G01 X-0.84301 Y-0.35668
G01 X-0.83892 Y-0.34882
G01 X-0.68540 Y-0.34882
G01 X-0.52657 Y-0.50765
G01 X-0.52657 Y-0.53268
G01 X-0.50098 Y-0.53268
G04 P0 ( dwell for no time -- G64 should not smooth over this point )
G00 Z0.07874 ( retract )

G00 X-0.50098 Y-0.30433 ( rapid move to begin. )
G01 F2.95276
G01 Z-0.00669
G04 P0 ( dwell for no time -- G64 should not smooth over this point )
G01 F5.90551
G01 X-0.50098 Y-0.30433
G01 X-0.50098 Y-0.26260
G01 X-0.51544 Y-0.26260
G01 X-0.54042 Y-0.23762
G01 X-0.54093 Y-0.23336
G01 X-0.54339 Y-0.22910
G01 X-0.54736 Y-0.22622
G01 X-0.54971 Y-0.22545
G01 X-0.83892 Y-0.22520
G01 X-0.84301 Y-0.21734
G01 X-0.84769 Y-0.21214
G01 X-0.85335 Y-0.20803
G01 X-0.85974 Y-0.20518
G01 X-0.86658 Y-0.20373
G01 X-0.87358 Y-0.20373
G01 X-0.88042 Y-0.20518
G01 X-0.88681 Y-0.20803
G01 X-0.89247 Y-0.21214
G01 X-0.89715 Y-0.21734
G01 X-0.90065 Y-0.22340
G01 X-0.90281 Y-0.23005
G01 X-0.90354 Y-0.23701
G01 X-0.90281 Y-0.24396
G01 X-0.90056 Y-0.25078
G01 X-1.04237 Y-0.39260
G01 X-1.36392 Y-0.39260
G01 X-1.40504 Y-0.35148
G01 X-1.40504 Y-0.33866
G01 X-1.40594 Y-0.33414
G01 X-1.40850 Y-0.33031
G01 X-1.41908 Y-0.31973
G01 X-1.41751 Y-0.31490
G01 X-1.41685 Y-0.30866
G01 X-1.41751 Y-0.30242
G01 X-1.41944 Y-0.29646
G01 X-1.42258 Y-0.29103
G01 X-1.42678 Y-0.28637
G01 X-1.43185 Y-0.28268
G01 X-1.43758 Y-0.28013
G01 X-1.44371 Y-0.27882
G01 X-1.44999 Y-0.27882
G01 X-1.45612 Y-0.28013
G01 X-1.46185 Y-0.28268
G01 X-1.46692 Y-0.28637
G01 X-1.47112 Y-0.29103
G01 X-1.47426 Y-0.29646
G01 X-1.47619 Y-0.30242
G01 X-1.47685 Y-0.30866
G01 X-1.47619 Y-0.31490
G01 X-1.47426 Y-0.32086
G01 X-1.47112 Y-0.32629
G01 X-1.46692 Y-0.33095
G01 X-1.46185 Y-0.33464
G01 X-1.45612 Y-0.33719
G01 X-1.44999 Y-0.33850
G01 X-1.44371 Y-0.33850
G01 X-1.43581 Y-0.33641
G01 X-1.42866 Y-0.34355
G01 X-1.42843 Y-0.35867
G01 X-1.42667 Y-0.36293
G01 X-1.37716 Y-0.41276
G01 X-1.37333 Y-0.41532
G01 X-1.37111 Y-0.41599
G01 X-1.03748 Y-0.41622
G01 X-1.03296 Y-0.41532
G01 X-1.02913 Y-0.41276
G01 X-0.88373 Y-0.26736
G01 X-0.88042 Y-0.26883
G01 X-0.87358 Y-0.27029
G01 X-0.86658 Y-0.27029
G01 X-0.85974 Y-0.26883
G01 X-0.85335 Y-0.26599
G01 X-0.84769 Y-0.26188
G01 X-0.84301 Y-0.25668
G01 X-0.83892 Y-0.24882
G01 X-0.55155 Y-0.24875
G01 X-0.52657 Y-0.27373
G01 X-0.52657 Y-0.30433
G01 X-0.50098 Y-0.30433
G04 P0 ( dwell for no time -- G64 should not smooth over this point )
G00 Z0.07874 ( retract )

G00 X-0.50098 Y-0.21772 ( rapid move to begin. )
G01 F2.95276
G01 Z-0.00669
G04 P0 ( dwell for no time -- G64 should not smooth over this point )
G01 F5.90551
G01 X-0.50098 Y-0.21772
G01 X-0.50098 Y-0.17598
G01 X-0.52657 Y-0.17598
G01 X-0.52657 Y-0.18504
G01 X-0.81085 Y-0.18510
G01 X-0.84164 Y-0.15431
G01 X-0.83951 Y-0.15062
G01 X-0.83735 Y-0.14397
G01 X-0.83661 Y-0.13701
G01 X-0.83735 Y-0.13005
G01 X-0.83951 Y-0.12340
G01 X-0.84301 Y-0.11734
G01 X-0.84769 Y-0.11214
G01 X-0.85335 Y-0.10803
G01 X-0.85974 Y-0.10518
G01 X-0.86658 Y-0.10373
G01 X-0.87358 Y-0.10373
G01 X-0.88042 Y-0.10518
G01 X-0.88681 Y-0.10803
G01 X-0.89247 Y-0.11214
G01 X-0.89715 Y-0.11734
G01 X-0.90124 Y-0.12520
G01 X-1.12750 Y-0.12542
G01 X-1.12972 Y-0.12610
G01 X-1.13355 Y-0.12865
G01 X-1.33581 Y-0.33092
G01 X-1.34371 Y-0.32882
G01 X-1.34999 Y-0.32882
G01 X-1.35612 Y-0.33013
G01 X-1.36185 Y-0.33268
G01 X-1.36692 Y-0.33637
G01 X-1.37112 Y-0.34103
G01 X-1.37426 Y-0.34646
G01 X-1.37619 Y-0.35242
G01 X-1.37685 Y-0.35866
G01 X-1.37619 Y-0.36490
G01 X-1.37426 Y-0.37086
G01 X-1.37112 Y-0.37629
G01 X-1.36692 Y-0.38095
G01 X-1.36185 Y-0.38464
G01 X-1.35612 Y-0.38719
G01 X-1.34999 Y-0.38850
G01 X-1.34371 Y-0.38850
G01 X-1.33758 Y-0.38719
G01 X-1.33185 Y-0.38464
G01 X-1.32678 Y-0.38095
G01 X-1.32258 Y-0.37629
G01 X-1.31944 Y-0.37086
G01 X-1.31750 Y-0.36490
G01 X-1.31685 Y-0.35866
G01 X-1.31750 Y-0.35242
G01 X-1.31908 Y-0.34759
G01 X-1.12030 Y-0.14882
G01 X-0.90124 Y-0.14882
G01 X-0.89715 Y-0.15668
G01 X-0.89247 Y-0.16188
G01 X-0.88681 Y-0.16599
G01 X-0.88042 Y-0.16883
G01 X-0.87358 Y-0.17029
G01 X-0.86658 Y-0.17029
G01 X-0.85974 Y-0.16883
G01 X-0.85270 Y-0.16552
G01 X-0.82198 Y-0.19624
G01 X-0.82147 Y-0.20050
G01 X-0.81901 Y-0.20475
G01 X-0.81504 Y-0.20764
G01 X-0.81269 Y-0.20840
G01 X-0.52657 Y-0.20866
G01 X-0.52657 Y-0.21772
G01 X-0.50098 Y-0.21772
G04 P0 ( dwell for no time -- G64 should not smooth over this point )
G00 Z0.07874 ( retract )

G00 X-1.63287 Y-0.63386 ( rapid move to begin. )
G01 F2.95276
G01 Z-0.00669
G04 P0 ( dwell for no time -- G64 should not smooth over this point )
G01 F5.90551
G01 X-1.63287 Y-0.63386
G01 X-1.63427 Y-0.64716
G01 X-1.63840 Y-0.65988
G01 X-1.64509 Y-0.67146
G01 X-1.65404 Y-0.68140
G01 X-1.66486 Y-0.68926
G01 X-1.67708 Y-0.69470
G01 X-1.69016 Y-0.69748
G01 X-1.70354 Y-0.69748
G01 X-1.71662 Y-0.69470
G01 X-1.72884 Y-0.68926
G01 X-1.73966 Y-0.68140
G01 X-1.74861 Y-0.67146
G01 X-1.75530 Y-0.65988
G01 X-1.75943 Y-0.64716
G01 X-1.76083 Y-0.63386
G01 X-1.75943 Y-0.62056
G01 X-1.75530 Y-0.60784
G01 X-1.74861 Y-0.59625
G01 X-1.73966 Y-0.58631
G01 X-1.72884 Y-0.57845
G01 X-1.71662 Y-0.57301
G01 X-1.70354 Y-0.57023
G01 X-1.69016 Y-0.57023
G01 X-1.67708 Y-0.57301
G01 X-1.66486 Y-0.57845
G01 X-1.65404 Y-0.58631
G01 X-1.64509 Y-0.59625
G01 X-1.63840 Y-0.60784
G01 X-1.63427 Y-0.62056
G01 X-1.63287 Y-0.63386
G04 P0 ( dwell for no time -- G64 should not smooth over this point )
G00 Z0.07874 ( retract )

G00 X-1.63287 Y-0.23386 ( rapid move to begin. )
G01 F2.95276
G01 Z-0.00669
G04 P0 ( dwell for no time -- G64 should not smooth over this point )
G01 F5.90551
G01 X-1.63287 Y-0.23386
G01 X-1.63427 Y-0.24716
G01 X-1.63840 Y-0.25988
G01 X-1.64509 Y-0.27146
G01 X-1.65404 Y-0.28140
G01 X-1.66486 Y-0.28926
G01 X-1.67708 Y-0.29470
G01 X-1.69016 Y-0.29748
G01 X-1.70354 Y-0.29748
G01 X-1.71662 Y-0.29470
G01 X-1.72884 Y-0.28926
G01 X-1.73966 Y-0.28140
G01 X-1.74861 Y-0.27146
G01 X-1.75530 Y-0.25988
G01 X-1.75943 Y-0.24716
G01 X-1.76083 Y-0.23386
G01 X-1.75943 Y-0.22056
G01 X-1.75530 Y-0.20784
G01 X-1.74861 Y-0.19625
G01 X-1.73966 Y-0.18631
G01 X-1.72884 Y-0.17845
G01 X-1.71662 Y-0.17301
G01 X-1.70354 Y-0.17023
G01 X-1.69016 Y-0.17023
G01 X-1.67708 Y-0.17301
G01 X-1.66486 Y-0.17845
G01 X-1.65404 Y-0.18631
G01 X-1.64509 Y-0.19625
G01 X-1.63840 Y-0.20784
G01 X-1.63427 Y-0.22056
G01 X-1.63287 Y-0.23386

G04 P0 ( dwell for no time -- G64 should not smooth over this point )
G00 Z0.394 ( retract )

M5 ( Spindle off. )
G04 P1.000000
M9 ( Coolant off. )
M2 ( Program end. )

