( pcb2gcode 2.0.0 )
( Software-independent Gcode )
( This file uses a mill head of 0.07874inch to drill the 2 hole sizes. )
( Hole sizes: [0.03 inch] [0.0394 inch] )

G94       (Inches per minute feed rate.)
G20       (Units == INCHES.)
G91.1     (Incremental arc distance mode.)
G90       (Absolute coordinates.)
S1000    (RPM spindle speed.)
G01 F1.96850 (Feedrate)
M3        (Spindle on clockwise.)
G04 P1.00000
G00 Z0.07874

G0 X-1.34690 Y-0.35870
G1 Z-0.09843 F0.98425
G0 Z0.07874

G0 X-1.34690 Y-0.45870
G1 Z-0.09843 F0.98425
G0 Z0.07874

G0 X-1.34690 Y-0.55870
G1 Z-0.09843 F0.98425
G0 Z0.07874

G0 X-1.44690 Y-0.50870
G1 Z-0.09843 F0.98425
G0 Z0.07874

G0 X-1.44690 Y-0.40870
G1 Z-0.09843 F0.98425
G0 Z0.07874

G0 X-1.44690 Y-0.30870
G1 Z-0.09843 F0.98425
G0 Z0.07874

G0 X-1.81690 Y-0.16380
G1 Z-0.09843 F0.98425
G0 Z0.07874

G0 X-1.81690 Y-0.70390
G1 Z-0.09843 F0.98425
G0 Z0.07874

G0 X-0.13870 Y-0.17240
G1 Z-0.09843 F0.98425
G0 Z0.07874

G0 X-0.13870 Y-0.27240
G1 Z-0.09843 F0.98425
G0 Z0.07874

G0 X-0.13870 Y-0.37240
G1 Z-0.09843 F0.98425
G0 Z0.07874

G0 X-0.13870 Y-0.47240
G1 Z-0.09843 F0.98425
G0 Z0.07874

G0 X-0.13870 Y-0.64480
G1 Z-0.09843 F0.98425
G0 Z0.07874

G0 X-0.13870 Y-0.74480
G1 Z-0.09843 F0.98425
G0 Z0.07874

G0 X-0.87010 Y-0.13700
G1 Z-0.09843 F0.98425
G0 Z0.07874

G0 X-0.87010 Y-0.23700
G1 Z-0.09843 F0.98425
G0 Z0.07874

G0 X-0.87010 Y-0.33700
G1 Z-0.09843 F0.98425
G0 Z0.07874

G0 X-0.87010 Y-0.43700
G1 Z-0.09843 F0.98425
G0 Z0.07874

G0 X-0.87010 Y-0.53700
G1 Z-0.09843 F0.98425
G0 Z0.07874

G0 X-0.87010 Y-0.63700
G1 Z-0.09843 F0.98425
G0 Z0.07874

G0 X-0.87010 Y-0.73700
G1 Z-0.09843 F0.98425
G0 Z0.07874

G00 Z0.394 ( All done -- retract )

M5      (Spindle off.)
G04 P1.000000
M9      (Coolant off.)
M2      (Program end.)

