( pcb2gcode 2.0.0 )
( Software-independent Gcode )

G94 ( Inches per minute feed rate. )
G20 ( Units == INCHES. )

G90 ( Absolute coordinates. )
G00 S1000 ( RPM spindle speed. )
G64 P0.00040 ( set maximum deviation from commanded toolpath )
G01 F1.96850 ( Feedrate. )


G00 Z0.39370 (Retract to tool change height)
T0
M5      (Spindle stop.)
G04 P1.00000 (Wait for spindle to stop)
(MSG, Change tool bit to cutter diameter 0.07874in)
M6      (Tool change.)
M0      (Temporary machine stop.)
M3 ( Spindle on clockwise. )
G04 P1.00000 (Wait for spindle to get up to speed)
G04 P0 ( dwell for no time -- G64 should not smooth over this point )
G00 Z0.07874 ( retract )

G00 X0.03937 Y-0.86614 ( rapid move to begin. )
G01 Z-0.11811 F0.98425 ( plunge. )
G04 P0 ( dwell for no time -- G64 should not smooth over this point )
G01 F1.96850
G01 X0.03937 Y-0.47638
G00 Z0.07874
G01 X0.03937 Y-0.38976
G01 Z-0.11811 F0.98425
G01 F1.96850
G01 X0.03937 Y0.00000
G01 X0.03861 Y0.00768
G01 X0.03637 Y0.01507
G01 X0.03274 Y0.02187
G01 X0.02784 Y0.02784
G01 X0.02187 Y0.03274
G01 X0.01507 Y0.03637
G01 X0.00768 Y0.03861
G01 X-0.00000 Y0.03937
G01 X-0.92126 Y0.03937
G00 Z0.07874
G01 X-1.00787 Y0.03937
G01 Z-0.11811 F0.98425
G01 F1.96850
G01 X-1.92913 Y0.03937
G01 X-1.93681 Y0.03861
G01 X-1.94420 Y0.03637
G01 X-1.95101 Y0.03274
G01 X-1.95697 Y0.02784
G01 X-1.96187 Y0.02187
G01 X-1.96551 Y0.01507
G01 X-1.96775 Y0.00768
G01 X-1.96850 Y0.00000
G01 X-1.96850 Y-0.38976
G00 Z0.07874
G01 X-1.96850 Y-0.47638
G01 Z-0.11811 F0.98425
G01 F1.96850
G01 X-1.96850 Y-0.86614
G01 X-1.96775 Y-0.87382
G01 X-1.96551 Y-0.88121
G01 X-1.96187 Y-0.88801
G01 X-1.95697 Y-0.89398
G01 X-1.95101 Y-0.89888
G01 X-1.94420 Y-0.90251
G01 X-1.93681 Y-0.90475
G01 X-1.92913 Y-0.90551
G01 X-1.00787 Y-0.90551
G00 Z0.07874
G01 X-0.92126 Y-0.90551
G01 Z-0.11811 F0.98425
G01 F1.96850
G01 X-0.00000 Y-0.90551
G01 X0.00768 Y-0.90475
G01 X0.01507 Y-0.90251
G01 X0.02187 Y-0.89888
G01 X0.02784 Y-0.89398
G01 X0.03274 Y-0.88801
G01 X0.03637 Y-0.88121
G01 X0.03861 Y-0.87382
G01 X0.03937 Y-0.86614

G04 P0 ( dwell for no time -- G64 should not smooth over this point )
G00 Z0.394 ( retract )

M5 ( Spindle off. )
G04 P1.000000
M9 ( Coolant off. )
M2 ( Program end. )

